icons/1_Primary/Tildes.svg

<svg xmlns="http://www.w3.org/2000/svg" width="1024" height="1024" fill="none">
   <g clip-path="url(#a)">
      <path fill="#73ADA4" d="M512 1024c282.77 0 512-229.23 512-512S794.77 0 512 0 0 229.23 0 512s229.23 512 512 512Z"/>
      <path fill="#fff" d="M272 272v239.06h59.06l.19-29.81.28-29.72 29.72-.28 29.81-.19.19-29.81.28-29.72h60.94l.28 29.72.19 29.81 29.81.19 29.72.28.28 29.72.19 29.81 29.81.19 29.72.28.28 29.72.19 29.81h58.12l.19-29.81.28-29.72 29.72-.28 29.81-.19.19-29.81.28-29.72 30.28-.28 30.19-.19V271.99H272v.01Zm120.94 180.94-.19 29.72-.28 29.81-29.72.28-29.81.19-.19 29.81-.28 29.72-30.19.28-30.28.19v179.07h480V512.95h-59.06l-.19 29.72-.28 29.81-29.72.28-29.81.19-.19 29.81-.28 29.72h-60.94l-.28-29.72-.19-29.81-29.81-.19-29.72-.28-.28-29.72-.19-29.81-29.81-.19-29.72-.28-.28-29.81-.19-29.72h-58.12v-.01Z"/>
   </g>
   <defs>
      <clipPath id="a">
         <path fill="#fff" d="M0 0h1024v1024H0z"/>
      </clipPath>
   </defs>
</svg>

<svg width="1024" height="1024" viewBox="0 0 1024 1024" fill="none" xmlns="http://www.w3.org/2000/svg">
<g clip-path="url(#clip0_2_3651)">
<path d="M512 1024C794.77 1024 1024 794.77 1024 512C1024 229.23 794.77 0 512 0C229.23 0 0 229.23 0 512C0 794.77 229.23 1024 512 1024Z" fill="#73ADA4"/>
<path d="M272 272V511.06H331.06L331.25 481.25L331.53 451.53L361.25 451.25L391.06 451.06L391.25 421.25L391.53 391.53H452.47L452.75 421.25L452.94 451.06L482.75 451.25L512.47 451.53L512.75 481.25L512.94 511.06L542.75 511.25L572.47 511.53L572.75 541.25L572.94 571.06H631.06L631.25 541.25L631.53 511.53L661.25 511.25L691.06 511.06L691.25 481.25L691.53 451.53L721.81 451.25L752 451.06V271.99H272V272ZM392.94 452.94L392.75 482.66L392.47 512.47L362.75 512.75L332.94 512.94L332.75 542.75L332.47 572.47L302.28 572.75L272 572.94V752.01H752V512.95H692.94L692.75 542.67L692.47 572.48L662.75 572.76L632.94 572.95L632.75 602.76L632.47 632.48H571.53L571.25 602.76L571.06 572.95L541.25 572.76L511.53 572.48L511.25 542.76L511.06 512.95L481.25 512.76L451.53 512.48L451.25 482.67L451.06 452.95H392.94V452.94Z" fill="white"/>
</g>
<defs>
<clipPath id="clip0_2_3651">
<rect width="1024" height="1024" fill="white"/>
</clipPath>
</defs>
</svg>
